X:1
T:Quartett KV 285b
T:Allegro
T:W. A. Mozart Bearb.: JM 
T:KV 285b - 1. Satz
C:W. A. Mozart
%%score [ 1 2 3 4 ]
L:1/8
Q:1/4=125
M:3/4
K:C
V:1 treble nm="Flöte" snm="Fl."
V:2 treble nm="Oboe" snm="Ob."
V:3 treble transpose=-2 nm="Klarinette in B" snm="B Kl."
V:4 bass nm="Fagott" snm="Fgt."
V:1
!f! g4 (e/d/e/f/) | (g2 e2 c2) | c'4 (a/g/a/b/) | (c'2 a2 f2) | g4 (e/d/e/f/) | (g2 e2 c2) | %6
 ed c2 B2 | c2 z2 z2 |"^9" z6 | z6 | z6 | z6 | z6 | z6 | z6 | z2 z!f! c cc | (c3 B/c/) (e/d/c/B/) | %17
 c2 z e ee | (e3 d/e/) (g/f/e/d/) | e2 z g gg | (g3 a/b/) (d'/c'/b/a/) | (g2 f2 e2) | %22
 (da g)(f ed) | (cB) z g gg | (g3/2a/4b/4) c'g fe | (ed) z g gg | (g3/2a/4b/4) c'g fe | %27
 d g2 (^f af) | g g2 (^f af) | g2 G2 z2 ||!p!"^31" d'6- | d'2 b2 g2 | d2 cB ed | (d2 c2 B2) | %34
 c'6- | c'2 a2 ^f2 | c2 BA dc | (c2 B2 A2) | G2 z2 z2 | z6 | z6 | z6 |!p! (b3/2c'/4b/4) ag ab | %43
 (d'c') (ba) (g^f) | (d'3/2e'/4d'/4) c'b ag | (ba)!<(! (g^f) (ed)!<)! | %46
!f! d'3 (b/c'/) (d'/c'/b/a/) | g z (g2 f2) | e^f g^g ab | c'd' (_e'=e' c'a) | g4- g(^f/g/ | %51
 a4-) a(b/c'/ | d'3) (b/c'/) (d'/c'/b/a/) | g z (g2 f2) | (e/^f/e/f/) g^g (a/b/a/b/) | %55
 c'd' (_e'/=e'/_e'/=e'/) c'a | d'4 (c'/b/a/g/) | Ta6 | g2 z g gg | (g3 a/b/) (d'/c'/b/a/) | %60
 g2 z g gg | (g3 a/b/) (d'/c'/b/a/) | gd d'3 ^f | gd d'3 ^f | g(b/a/) g(b/a/) g(b/a/) | g2 G2 z2 :: %66
!p!"^67" g^f ga _b2- | b2 d'3 ^f | g^f ga _b2- | b2!<(! d'3 ^f!<)! |!f! g^f ga _ba | gf _ed c_B | %72
 A_e!>(! dc _BA | G2!>)! z2 z2 |!p! d^c de f2- | f2 a3 ^c | d^c de f2- | f2 a3 ^c | %78
!<(! d^c' d'c' d'=c' | _ba ba ba | g^f gf!<)! g=f |!f! (fe)!>(! d2 ^c2!>)! | %82
!p! d^c'!<(! d'c' d'=c' | _ba ba ba | g^f gf g=f!<)! |!f! (fe) d2 ^c2 | d2 z2 z2 | z6 | z6 | z6 | %90
!p!"^91" e_e =e^f ^g2- | g2 b3 e | a^g ab c'2- | c'2 e'3 a | e_e =e^f ^g2- | g2 b3 e | %96
 a^g ab c'2- | c'2 e'3 a | ^g2 z2 z2 | z6 | z6 | z6 |!p!"^103" (_b2 a2 ^g2) | (^ga) a2 z2 | %104
 (g2 f2 e2) | (ef) f2 z2 | (f2 e2 d2) | (e2 f2 g2) |!<(! (^ga =gf ed) | (c2!<)! B2) z2 || %110
!f!"^111" g4 (e/d/e/f/) | (g2 e2 c2) | c'4 (a/g/a/b/) | (c'2 a2 f2) | g4 (e/d/e/f/) | (g2 e2 c2) | %116
 ed c2 B2 | c2 z2 z2 | z6 | z6 | z6 | z6 |!f! (g3 a/b/) (d'/c'/b/a/) | (g2 f2 e2) | (da g)(f ed) | %125
 (cB) z g gg | (g3/2a/4b/4) c'g fe | ed z g gg | (g3/2a/4b/4) c'g fe | d g2 (^f c'f) | %130
 g g2 (^f c'f) | g2 G2 z2 ||"^133" z6 | z6 |!p! g2 fe ag | (g2 f2 e2) | z6 | z6 | f2 ed gf | %139
 (f2 e2 d2) | c'6- | c'2 a2 f2 | c2 _BA dc | (c2 _B2 A2) | _b6- | b2 g2 e2 | _B2 AG cB | %147
!<(! (_B2 A2 G2)!<)! | A2!f! a4- | (a^g) e^f =ga | ^fd g4- | (g^f) de =fg | ec c'4- | c'6- | c'6- | %155
 c'2- c'_b ^g=g | (g^f) =f_e dc | g2 G2 z2 |"^159" z6 | z6 | z6 | z6 |!p! (e3/2f/4e/4) dc de | %163
 (gf) (ed) (cB) | (g3/2a/4g/4) fe dc |!<(! (ed) (cB) (AG)!<)! |!f! g3 (e/f/) (g/f/e/d/) | %167
 c z (c'2 _b2) | (^ga) (bc') (ef) | (^ga) (^cd) ef | g4 (f/e/d/c/) | d4- d(e/f/ | %172
 g3) (e/f/) (g/f/e/d/) | c z (c'2 _b2) | (^g/a/g/a/) bc' (e/f/e/f/) | ^ga (^c/d/c/d/) ef | %176
 g3 (a/g/) (f/e/d/c/) | d6 |"^179" c2 z c cc | (c3 d/e/) (g/f/e/d/) | c2 z c cc | %181
 (c3 d/e/) (g/f/e/d/) | cG g3 b | c'e g3 b | c'(d'/b/) c'(d'/b/) c'(d'/b/) | c'2 c2 z2 :| %186
V:2
!mf! GG GG GG | GG GG GG | AA AA AA | AA AA AA | GG GG GG | GG GG GG | GG GG GG | G2 z2 z2 | %8
!mp! g4 (e/d/e/f/) | (g2 e2 c2) | c'4 (a/g/a/b/) | (c'2 a2 f2) | g4 (e/d/e/f/) | (g2 e2 c2) | %14
 ed c2 B2 | c2 z!f! E EE | (E3 D/E/) (G/F/E/D/) | E2 z c cc | (c3 B/c/) (e/d/c/B/) | c2 z G GG | %20
 (G3 A/B/) (d/c/B/A/) | (G2 F2 E2) | D2 (EF GA) | (EB) (AG AB) | c3 g Bc | z (B AG AB) | c3 g Bc | %27
 G2 A4 | B2 A4 | B2 B2 z2 || z6 | z6 |!p! B2 AG cB | (B2 A2 G2) | ^F2 FF F2 | c2 cc c2 | %36
 A2 G^F BA |!<(! (A2 G2 ^F2)!<)! |!f! (B3/2c/4B/4) AG AB | (dc) (BA) (G^F) | (d3/2e/4d/4) cB AG | %41
!>(! (BA) (G^F) (ED)!>)! |!p! DD DD DD | CC CC CC | DD DD DD | CC!<(! CC CC!<)! |!mf! DG GG GG | %47
 GG GG GG | G2 z2 z2 | z6 | GG GG GG | ^FF FF FF | d3 (B/c/) (d/c/B/A/) | G z (G2 F2) | %54
 (E/^F/E/F/) G^G (A/B/A/B/) | cd (_e/=e/_e/=e/) cA | GG GG GG | ^FF FF FF | GG/G/ AA BB | %59
 cc EE ^FF | GG/G/ AA BB | cc EE ^FF | G2 z (d2 c) | B2 z (d2 c) | B(d/c/) B(d/c/) B(d/c/) | %65
 B2 B2 z2 ::!p! G^F GA _B2- | B2 d3 ^F | G^F GA _B2- | B2!<(! d3 ^F!<)! |!f! G^F GA _Bc | %71
 dc _BA GF | _Ec!>(! _BA G^F | G2!>)! z2 z2 |!p! FG FE D2- | D2 DF EG | FG FE D2- | D2 DF EG | %78
!<(! FG FG FE | D^C d^c d=c | _Bc dc BA!<)! |!f! (AG)!>(! F2 E2!>)! |!p! FG!<(! FG FE | %83
 d^c dc d=c | _Bc dc BA!<)! |!f! (AG) F2 E2 | F2 f3 (e/f/) | e2 c'3 b/c'/ | b2 d3 ^c/d/ | %89
 ce dc BA |!p! ^GA Gc BB | BB BB BB | cd cf ee | cc cc cc | Bc B_e =ee | BB BB BB | cd cf ee | %97
 cc cc cc | e2 ^g3 (^f/g/) | g2 g3 (^f/g/) | ^f2 f3 (e/f/) | f2 f3 (e/f/) | e!p!c cc cc | %103
 c(c FA) (cA) | AA AA AA | A(A DF) (AF) | GG GG GG | (Gc) cc cc |!<(! (dc BA GF) | %109
 (E2!<)! D)!f!(D!>(! EF)!>)! ||!mf! GG GG GG | GG GG GG | AA AA AA | AA AA AA | GG GG GG | %115
 GG GG GG | GG GG GG | G2 z2 z2 |!p! G4 (E/D/E/F/) | (G2 E2 C2) | c4 (A/G/A/B/) | (c2 A2 F2) | %122
!f! (G3 A/B/) (d/c/B/A/) | (G2 F2 E2) | D2 (EF GA) | (Ed) (cB cd) | e3 e dc | z (d cB cd) | %128
 e3 e dc | B2 c4 | d2 c4 | d2 d2 z2 ||!p! g6- | g2 e2 c2 | G2 FE AG | (G2 F2 E2) | f6- | f2 d2 B2 | %138
 F2 ED GF | (F2 E2 D2) | C2 z2 z2 | z6 | A2 GF _BA | (A2 G2 F2) | E2 EE E2 | _B2 BB B2 | G2 FE AG | %147
!<(! (G2 F2 E2)!<)! |!f! F A2 c- cB- | B2 E4 | z c2 _B- BA- | A2 D4 | C2 c4- | (cB) GA _Bc | %154
 (_BA) FG ^GB | (^G=G) ^F=F _ED | C C2 ^F- F_e | d2 z (B cd) | (e3/2f/4e/4) dc Bc | %159
 (gf) (ed) (cB) | (g3/2a/4g/4) fe dc |!>(! (ed) (cB) (AG)!>)! |!p! GG GG GG | FF FF FF | EE EE EE | %165
!<(! FF FF FF!<)! |!mf! GG GG GG | GG GG GG | F2 z2 z2 | z6 | EE EE EE | GG GG GG | %172
 G3 (E/F/) (G/F/E/D/) | C z (c2 _B2) | (^G/A/G/A/) Bc (E/F/E/F/) | ^GA (^C/D/C/D/) EF | EE EE EE | %177
 FF FF FF | EE/E/ FF GG | AA CC DD | EE/E/ FF GG | AA CC DD | E2 z (G2 F) | E2 z (g2 f) | %184
 ef ef ef | e2 E2 z2 :| %186
V:3
[K:D]!mf! FF FF FF | FF FF FF | GG GG GG | GG GG GG | FF FF FF | FF FF FF | GG FF EE | %7
!f! FF!>(! GE CA!>)! | z!p! (F AF AF) | z (F AF AF) | z (G BG BG) | z (G BG BG) | z (F AF AF) | %13
 z (F AF AF) | (GA FA EA) | F2 z2 z2 | z!mf! A, A,A, A,A, | A,2 z2 z2 | z A AA AA | A2 z!f! F FF | %20
 F6 | (E2 C2 D2) | B,2 (^DE FG) | z (E DC DE) | F3 F ED | z (E DC DE) | F3 F ED | C2 D4 | E2 D4 | %29
 E2 E2 z2 || z6 | z6 |!p! EE EE EE | EE EE EE | E2 EE E2 | B2 BB B2 | EE EE EE |!<(! EE EE EE!<)! | %38
!f! E2 (DC) B,A, | (^G,B,) D4 | (A,C) E2 z E |!>(! (^G,2 B,2 D2)!>)! |!p! CC CC CC | %43
 B,B, B,B, B,B, | CC CC CC | ^G,G,!<(! G,G, G,G,!<)! |!mf! A,E EE EE | EE EE EE | D2 z2 z2 | z6 | %50
 CC CC CC | EE EE EE | AA AA AA | EE EE EE | D2 z2 z2 | z6 | CC CC CC | DD DD DD | CC/C/ DD EE | %59
 FF DD B,B, | CC/C/ DD EE | FF DD B,B, | C2 z (c2 B) | A2 z (c2 B) | A2 A2 A2 | A2 E2 z2 :: z6 | %67
!p! A,^G, A,B, =C2- | C2 E3 ^G, | A,^G, A,B,!<(! =C2- | C!<)!!f! E2 E2 E- | EB AG =FE | %72
 D2!>(! E3 D | =C=c AF B^D | E2!>)! z2 z2 |!p! B,6- | B,2 z2 z2 | B,6- | B,2 z2 z2 | z6 | z6 | %81
!f! =C2!>(! B,2 B,2!>)! |!p! E,6- |!<(! E,6- | E,6!<)! |!f! =C2 B,2 B,2 | B,2 ^A4 | B2 =F4 | %88
 F2 ^A4 | Bc BA G^G |!p! CD C=F ^FF | ^AA AA AA | Fc B^A BB | BB BB BB | ^AB Ad cc | ^AA AA AA | %96
 FG F^A BB | BB BB BB | F2 c4 | c2 c4 | c2 c4 | c2 c4 | A2!p! (G2 F2) | (FG) G2 z2 | (F2 E2 ^D2) | %105
 (^DE) E2 z2 | (E2 D2 C2) | (A2 G2 F2) |!<(! (CD) z2 B2 | A3!<)!!f! (C!>(! DE)!>)! || %110
!mf! FF FF FF | FF FF FF | GG GG GG | GG GG GG | FF FF FF | FF FF FF | GG FF EE | %117
!f! F!>(!F GE CA,!>)! | z!p! (F, A,F, A,F,) | z (F, A,F, A,F,) | z (G, B,G, B,G,) | %121
 z (G, B,G, B,G,) |!f! F,2 F4 | (E2 C2 D2) | B,2 (^DE FG) | z (C B,A, B,C) | D3 A CD | %127
 z (C B,A, B,C) | D3 A CD | A,2 B,4 | C2 B,4 | C2 C2 z2 || z6 | z6 |!p! F2 ED GF | (F2 E2 D2) | %136
 C2 z2 z2 | z6 | E2 DC FE | (E2 D2 C2) | D2 z2 z2 | z6 | DD DD DD | DD DD DD | D2 DD D2 | %145
 A2 AA A2 | DD DD DD |!<(! DD DD DD!<)! | G,2 z2 z2 | z!f! E2 ^D2 =D- | D2 z2 F2 | E D2 C2 =C- | %152
 C2 B,2 B2- | (BA) FG AB | (AG) DF GA | (GF) =FE D=C | =F F2 D2 ^G | A2 z (A, B,C) | %158
 (DA,) G,F, E,F, | G,4- (G,^G,) | (A,C) (D3 A,) |!>(! A,2 E,2 E2!>)! |!p! FF FF FF | EE EE EE | %164
 A,A, A,A, A,A, |!<(! CC CC CC!<)! |!mf! DD DD DD | DD DD DD | D2 z2 z2 | z6 | DD DD DD | %171
 CC CC CC | DD DD DD | A,A, A,A, A,A, | D2 z2 z2 | z6 | DD DD DD | CC CC CC | DD/D/ EE FF | %179
 GG B,B, CC | DD EE FF | GG B,B, CC | D2 z (F2 E) | D2 z (F2 E) | DA AA AA | A2 A2 z2 :| %186
V:4
!mf! C,2 CC CC | C,2 CC CC | C,2 CC CC | C,2 CC CC | C,2 CC CC | C,2 CC CC | G,2 G,G, G,G, | %7
!f! (C,E,)!>(! F,D, B,,G,!>)! |!p! C,2 z2 z2 | C,2 z2 z2 | C,2 z2 z2 | C,2 z2 z2 | C,2 z2 z2 | %13
 C,2 z2 z2 | G,6 | z!f! C, E,G, E,C, | G,2 G,,2 z2 | z C, E,G, E,C, | G,2 G,,2 z2 | %19
 z C, E,G, E,C, | CC CC CC | B,B, G,G, A,A, | F,6 | G,2 G,,2 z2 | z G, G,G, G,G, | G,2 G,,2 z2 | %26
 z G, G,G, G,G, | G,2 D,4 | G,,2 D,4 | G,2 G,,2 z2 || z2!p! G,,2 B,,2 | D,2 G,2 B,2 | D2 z2 z2 | %33
 z6 | z2 D,,2 A,,2 | D,2 ^F,2 A,2 | D2 z2 z2 | z6 |!f! G,2 G,,2 z G,, | A,,2 A,2 z A, | %40
 B,2 B,,2 z B,, |!>(! C,2 C2 z ^F,!>)! |!p! G,2 GG GG | D,2 DD DD | G,,2 G,G, G,G, | %45
 D,2!<(! DD DD!<)! |!mf! B,,B,, B,,B,, B,,B,, | B,,B,, B,,B,, B,,B,, | C,2 z2 z2 | z6 | %50
 D,D, D,D, D,D, | C,C, C,C, C,C, | B,,B,, B,,B,, B,,B,, | B,,B,, B,,B,, B,,B,, | C,2 z2 z2 | z6 | %56
 D,D, D,D, D,D, | D,D, D,D, D,D, | G,,2 z2 z2 | G,6 | G,,2 z2 z2 | G,6 | G,,2 z G,, B,,D, | %63
 G,2 z G,, B,,D, | G,2 G,2 G,2 | G,2 G,,2 z2 :: z6 |!p! G,,^F,, G,,A,, _B,,2- | B,,2 D,3 ^F,, | %69
 G,,^F,, G,,A,,!<(! _B,,2- | B,,!<)!!f!D, E,^F, G,A, | _B,A, G,F, _E,D, | C,2!>(! D,2 D,2 | %73
 G,,_B, G,E, A,^C, | D,2!>)! z2 z2 |!p! D,2 F,2 A,2 | D,2 z2 z2 | D,2 F,2 A,2 | D,2 z2 z2 | z6 | %80
 z6 |!f! G,2!>(! A,2 A,,2!>)! |!p! D,2 z2 z2 | z6 | z6 |!f! G,2 A,2 A,,2 | D,2 B,,4 | C,2 A,4 | %88
 ^G,2 E,4 | A,G, F,E, D,_E, |!p! E,2 z2 z2 | E,,2 E,E, E,E, | E,2 z2 z2 | E,,2 E,E, E,E, | %94
 E,2 z2 z2 | E,,2 E,E, E,E, | E,2 z2 z2 | E,,2 E,E, E,E, | E,2 E4 | E2 E4 | _E2 E4 | D2 D4 | %102
 C2 z2 z2 | z!p! F, A,C A,F, | A,2 z2 z2 | z D, F,A, F,D, | G,6 | (C,2 D,2 E,2) |!<(! F,2 z2 F,2 | %109
 G,G,,!<)!!f! (G,F,!>(! E,D,)!>)! ||!mf! C,2 CC CC | C,2 CC CC | C,2 CC CC | C,2 CC CC | %114
 C,2 CC CC | C,2 CC CC | G,2 G,G, G,G, |!f! (C,!>(!E,) F,D, B,,G,,!>)! |!p! C,2 z2 z2 | %119
 C,,2 z2 z2 | C,2 z2 z2 | C,,2 z2 z2 |!f! C,C, C,C, CC | B,B, G,G, A,A, | F,6 | G,2 G,,2 z2 | %126
 z G, G,G, G,G, | G,2 G,,2 z2 | z G, G,G, G,G, | G,2 D,4 | G,,2 D,4 | G,2 G,,2 z2 || %132
 z2!p! C,,2 E,,2 | G,,2 C,2 E,2 | G,G, G,G, G,G, | G,G, G,G, G,2 | z2 D,,2 G,,2 | G,,2 B,,2 D,2 | %138
 G,G, G,G, G,G, | G,G, G,G, G,2 | z2 C,,2 E,,2 | F,,2 F,2 A,2 | C2 z2 z2 | z6 | z2 C,,2 E,,2 | %145
 C,2 E,2 G,2 | C2 z2 z2 | z6 | z2!f! F,2 _E,2 | E,4 A,,2 | D,2 _E,2 ^C,2 | D,4 G,,2 | %152
 C,2 F,G, A,^F, | G,2 C2 E,2 | F,4 F,,2 | C,2 z2 C_B, | ^G,G, G,G, G,G, | G,2 z (F, E,D,) | %158
 C,2 C,,2 z C,, | D,,2 D,2 z D, | E,2 E,,2 z E,, |!>(! F,,2 F,2 z B,,!>)! |!p! C,2 CC CC | %163
 G,2 G,G, G,G, | C2 CC CC |!<(! G,2 G,G, G,G,!<)! |!mf! E,E, E,E, E,E, | E,E, E,E, E,E, | %168
 F,2 z2 z2 | z6 | G,G, G,G, G,G, | F,F, F,F, F,F, | E,E, E,E, E,E, | E,,E,, E,,E,, E,,E,, | %174
 F,,2 z2 z2 | z6 | G,,G,, G,,G,, G,,G,, | G,,G,, G,,G,, G,,G,, | C,2 z2 z2 | C,6- | C,2 z2 z2 | %181
 C,6- | C,2 z C, E,G, | C2 z C, E,G, | CG, CG, CG, | C2 C,2 z2 :| %186

